X:1
T:Air in D for unaccompanied flute
T:Air in D Major
T:J. S. Bach (1685 - 1750) arr. Ruth Bearden
T:for unaccompanied flute
L:1/8
Q:1/8=84
M:4/4
K:D
V:1 treble nm="Flute" snm="Fl."
V:1
{/D} f8 | (!tenuto!G/f/b/g/)({ef)} (e/d/c/d/) (c/4A/4E/4A/4c) (B<A) | %2
{/D} a4- a/(f/=c/B/ e/^d/a/g/) |{/E} g4- g/(e/B/A/ d/c/g/f/) | %4
({FA)d} (f3 (g/a/) d)(d/4e/4f/- f/e/-e/d/ | c/B/(B/4c/4d/-) d(c/B/) A4) :| %6
{/E} (c2- c/4A/4d/4c/4B/4c/4A/) (a-a/4f/4^d/4A/4- A/4F/4A/4B/4=c) | %7
{/^D} Bb- b/(a/g/f/){f} g2- g/4(f/4e/4d/4c/B/) | (^A/B/)c- (c/d/)e- (e/f/)g- gf | %9
 e/d/c/B/ c/d/4e/4d{c} B2- B/D/F/A/ |{/F} d2- d/(f/e/d/) b2- b(a/^g/) | %11
{/f} e/a/A (B3/2c/4d/4) (Tc>B) A2 |{/F} (dA/=c/ B/^c/)(f/e/) (eC/^B,/ C/^D/)(g/f/) | %13
 (f^D/C/ D/E/)(a/g/) (g/^d/e/B/ G/B/G/E/) |{/C} A2- A/(c/e/g/) (g/e/f-) f(f/g/4a/4) | %15
 d2- d/(f/a/=c'/){c'} b3 d | (c/e/)g- g(f{/E} e/)A/(e/f/4g/4) g/(fe/) | %17
 (d/4c/4B)c/ (dTc/)d/{/D} d4 |] %18

